X:34
T:The Bank of Ireland
M:4/4
L:1/8
K:D
AB|=c2 AB c2 AG|EGDG EGDB|=c2 AB c2 AG|Addc dfed|
=c2 AB c2 AG|EGDG EGDB| =c2 AB c2 AG|Addc d2 :|
z e|f2 d e2 c|dfed cAAe|f2 d e2 fg|afge d2 cd|
eaag efge|dfed cAAG|Addc defg|afge d2 :|
